X:1
T:Title
%%score 1 2 3
L:1/8
M:3/2
K:C
V:1 treble nm="Part_1"
V:2 treble-8 nm="Part_2"
V:3 treble-8 nm="Part_3"
V:1
 z12 | D4 C4 D4 | F4 G6 F2 | F4 E4 D2 G2- | G2 F2 D2 E2 C2 B,2 | D4 z4 z4 | A4 G4 F4 | G6 F2 F4 | %8
 C2 F2 E2 D4 C2 | D12 || z12 | A4 c4 d4 | A6 G2 G4 | c2 B2 G2 A4 G2 | A4 z4 A4 | G4 _B2 A4 F2 | %16
 G4 F4 E4 | D4 z4 F4 | G8 D4 | F2 E4 C2 D4 | C4 z4 F4 | F4 D2 C2 E2 F2 | G2 F3 E D4 C2 | D12 || %24
 z12 | A8 c4 | d4 A4 G4 | d3 c BA A4 G2 | A8 z4 | A8 G4 | _B4 A4 G4 | F4 E4 F4 | D4 A6 G2 | %33
 G2 E2 D4 F4 | E2 D3 C C4 B,2 | C8 z4 | E8 F4 | G3 F ED D4 ^C2 | D12 ||[M:3/2] A,4 C2 D2 E3 F | %40
 D4 C6 B,2 | D8 z4 | F12 | !fermata!G12 | !fermata!F12 | F4 D6 C2 | E4 !fermata!E4 z4 | C8 F4 | %48
 E8 D4 | G3 FED D4 C2 | D12 | z12 | F4 A4 G4 | A4 F4 G4 | F2 _E2 C2 D4 C2 | D8 F4 | G4 F4 G4 | %57
 _B2 A4 F2 G4 | z2 E2 D2 F4 E2 | G4 E4 F2 E2 | D6 E2 C2 B,2 | D12 || z12 | A,4 C4 D4 | %64
 F2 G2 A2 F2 G4 | F2 E3 D D2 C2 B,2 | D8 z4 | C4 F6 E2 | E6 D2 D2 E2 | F2 E2 D2 D2 C2 B,2 | D8 F4 | %71
 A6 G2 G2 F2 | A8 F4 | G4 F2 D4 C2 | D4 F4 G4 | F6 A2 G2 F2 | A4 z4 A4 | F4 G4 E2 F2 | %78
 D6 E2 C2 B,2 | D12 || z12 | A4 c4 d4 | A4 A4 G4 | c2 _B2 G2 A4 G2 | A4 z4 _B4- | B2 A2 c6 G2 | %86
 G4 z4 z4 | A2 G4 F2 E4 | D4 z4 C4 | _E8 D4 | F4 G2 A2 G2 F2 | A4 A4 F4 | G6 F2 E4 | %93
 G2 F3 E D4 C2 | D12 || z12 | A6 B2 c4 | d6 A2 A4 | A8 G4 | c2 B3 A A2 G2 F2 | A8 B4 | c8 G4 | %102
 F4 E4 G2 F2 | D2 F2 E2 D2 C2 B,2 | D8 z4 | C8 C4 | E8 D4 | G4 A2 _B2 G2 F2 | A12 | z12 | %110
 A4 F4 G4 | E4 F4 E4 | z2 A2 G2 F2 A4 | _B2 d4 c2 B2 G2 | A6 _B2 G2 F2 | A4 A8 | A12- | A12 | %118
 A12 |] %119
V:2
 z12 | z12 | D4 G8 | D4 d4 B4 | G2 A3 F A2 G2 F2 | A8 d4 | c4 B2 d2 c2 B2 | d4 B4 A4 | %8
 z2 c2 B2 A4 G2 | A12 || A4 E4 D4 | F4 D4 E4 | F4 A4 G4 | D4 z2 c2 d2 c2 | e8 c4 | d4 G4 F4 | %16
 C4 D4 c2 B2 | A8 c4 | B8 A4 | c6 A2 G4 | C8 D4 | F4 c4 B4 | A2 c2 BA A4 G2 | A12 || z12 | z12 | %26
 z12 | z12 | z12 | z12 | z12 | z12 | z12 | z12 | z12 | z12 | z12 | z12 | z12 ||[M:3/2] A4 F4 _B4 | %40
 A4 G6 F2 | A8 z4 | !fermata!D12 | !fermata!d12 | !fermata![DA]12 | c4 A6 G2 | B4 B4 z4 | A4 F8 | %48
 z2 C2 C4 c4 | c2 B2 G2 A4 G2 | A12 | D4 E4 D4 | c8 B4 | c2 B4 A2 c4 | A2 _B3 A A4 G2 | A8 D4 | %56
 E4 D4 C4 | G2 D2 z2 d2 d2 _B2 | c4 A4 z2 A2 | F2 G2 A2 c4 B2 | A6 G2 A2 F2 | A12 || A4 G4 F4 | %63
 c8 B4 | A4 d4 B4- | B2 c2 A2 G2 A2 F2 | A12 | F4 c6 B2 | B6 A2 A4 | c4 B2 A4 G2 | A8 D4 | F8 G4 | %72
 D8 D4 | d2 B4 A4 G2 | A8 G4 | D4 F4 G4 | D8 A4 | D4 z2 d2 c4 | B4 A2 B2 G2 F2 | A12 || A4 A4 D4 | %81
 c2 d2 e2 c2 _B4 | A2 F4 D2 E4 | F6 E2 G4 | A4 D4 G4 | z2 _B2 A4 F4 | G4 F2 E2 C2 D2 | %87
 F2 G2 E2 D2 A4 | G4 A2 c4 A2 | _B6 A2 G4 | c2 d2 e2 d4 c2 | e8 z4 | _B8 A4 | d2 c2 A2 _B2 G2 F2 | %94
 A12 || D4 F4 E4 | D8 c4 | B2 c2 d4 e4 | z2 A2 D4 G4 | z2 E2 F2 A2 G4 | D8 d4 | c8 c4 | B4 c6 B2 | %103
 A6 G2 A2 F2 | A8 z4 | A6 G2 F4 | c4 B4 A2 D2 | E4 F4 G4 | D8 F4 | A4 _B6 A2 | A8 G4 | %111
 _B4 c4 B2 A2 | F4 G4 D4 | d8 d4 | A4 D2 F2 G4 | D12- | D12 | D12 | D12 |] %119
V:3
 D4 C4 D4 | F4 A4 G4 | F4 _B8 | A4 G8 | E2 F4 G2 E4 | D12 | F4 G4 A4 | G8 D4 | A4 G2 D2 E4 | D12 || %10
 A4 c4 d4 | A8 G4 | c8 B4 | A2 d2 c2 A2 B4 | A12 | B4 d8 | c4 A8 | D4 F4 A4 | G8 F4 | A8 B4 | %20
 c4 e4 d4 | A8 G4 | D2 C2 D2 F2 E4 | D12 || d8 e4 | d4 c4 e4 | d4 c2 A2 B4 | A12 | z12 | c8 e4 | %30
 d4 c4 _B4 | A4 G4 D4 | G4 F8 | G4 G4 A4 | G4 E2 C2 D4 | C12 | c8 A4 | G4 A2 F2 E4 | D12 || %39
[M:3/2] A8 G4 | F4 E6 D2 | D8 z4 | A12 | !fermata!G12 | !fermata!d12 | A4 F6 E2 | E4 E4 z4 | %47
 A8 A4 | G8 F4 | E2 G4 D2 E4 | D8 F4 | A4 G4 A4 | F8 G4 | F4 D4 C4 | D2 F4 D2 _E4 | D8 A4 | %56
 G4 d4 e4 | d4 c2 _B4 G2 | A4 z2 F2 A2 c2- | c2 B2 c2 A4 G2 | D4 F4 E4 | D12 || A,4 C4 D4 | %63
 F4 A4 G4 | D8 E4 | D2 C2 D2 F2 E4 | D12 | A12 | G8 F4 | A4 G2 D2 E4 | D8 d4 | c8 B4 | A8 A4 | %73
 G4 D2 F2 E4 | D8 E4 | F2 A4 c2 B4 | A8 c4 | d4 c2 B2 A4 | G4 F2 D2 E4 | D12 || A4 c4 d4 | %81
 A4 A4 G4 | A4 c4 _B4 | A2 d2 c2 A2 _B4 | A8 d4- | d4 c8 | _B4 A2 G4 F2 | D2 E2 G2 A4 c2 | %88
 _B4 A4 F4 | G8 _B4 | A4 c4 _B4 | A12 | G12 | G2 A2 F2 D2 _E4 | D12 || A6 B2 c4 | d8 A4 | G8 c4- | %98
 c4 d4 e4 | e4 d2 c2 B4 | A8 G4 | F8 E4 | D4 C8 | F4 G4 E4 | D12 | F8 A4- | A4 G4 F4 | c8 _B4 | %108
 A12 | F4 G4 E4 | F4 D4 E4 | G4 z2 A2 G2 F2 | A2 c2 _B4 A4 | G8 _B4 | A4 c4 _B4 | A12 | F12 | %117
 G2 A2 F2 D2 E4 | D12 |] %119

